X: 19487
T: Jackson's Return
R: hornpipe
M: 4/4
K: Dmajor
(3ABc|:d2 D2 D3 E|FA F2 D3 E|F2 A2 AG F2|G2 E2 E2(3ABc|
d2 D2 D3 E|FA F2 D3 E|F2 A2 AG F2|E4 D4:|
dcd2 edef|gf ef d2A2|BcdB A2 F2|G2 E2 E2 D2|
dcd2 edef|gf ef d2A2|BcdB A2 F2|E4 D4:|

